src/main/resources/icons/tauri.svg

<?xml version="1.0" encoding="UTF-8"?>
<svg width="16px" height="16px" viewBox="0 0 16 16" version="1.1" xmlns="http://www.w3.org/2000/svg">
    <g id="Generator-Icon" stroke="none" stroke-width="1" fill="none" fill-rule="evenodd">
        <g id="tauri" transform="translate(2.000000, 2.000000)" fill-rule="nonzero">
            <path d="M7.92394788,4.65816463 C7.92394788,5.33089117 7.37859527,5.87624377 6.70586874,5.87624377 C6.0331422,5.87624377 5.4877896,5.33089117 5.4877896,4.65816463 C5.4877896,3.9854381 6.0331422,3.44008549 6.70586874,3.44008549 C7.37859527,3.44008549 7.92394788,3.9854381 7.92394788,4.65816463 L7.92394788,4.65816463 Z"
                  id="Path" fill="#FFC131"/>
            <circle id="Oval" fill="#24C8DB"
                    transform="translate(4.657281, 8.146300) rotate(-180.000000) translate(-4.657281, -8.146300) "
                    cx="4.65728109" cy="8.14630035" r="1.21807914"/>
            <g id="Group">
                <path d="M9.23061459,8.5615546 C8.74107172,8.87803328 8.19639591,9.09965999 7.62496481,9.21488796 C7.79057061,8.74274031 7.84550487,8.2388606 7.78552979,7.74211954 C9.11524376,7.27727463 9.99722993,6.01241124 9.97374438,4.60398359 C9.95025883,3.19555593 9.02659151,1.96080184 7.68211852,1.54054902 C6.33764554,1.12029621 4.87519942,1.60920348 4.05377825,2.7535318 C3.43400855,2.82326474 2.83090062,2.99932731 2.27095333,3.27398379 C2.87930965,1.31116229 4.70370534,-0.0197602364 6.75854509,0.000221970159 C8.81338484,0.0202041768 10.611553,1.38635418 11.1816231,3.36063524 C11.7516932,5.33491631 10.9585258,7.44930981 9.23061459,8.5615546 Z M2.32632056,4.12110247 L3.46688557,4.25952055 C3.49275674,4.03926163 3.54099048,3.82220978 3.61084038,3.61172392 C3.15969127,3.71660651 2.72674042,3.88829392 2.32632056,4.12110247 L2.32632056,4.12110247 Z"
                      id="Shape" fill="#FFC131"/>
                <path d="M2.12699852,4.24291038 C2.61948432,3.92320222 3.1680551,3.69964084 3.74372174,3.5840403 C3.56958793,4.05611456 3.50705285,4.56208017 3.56100987,5.06234544 C2.2360042,5.5337263 1.36141192,6.80022857 1.3899319,8.20629634 C1.41845187,9.6123641 2.34368188,10.8423597 3.68671238,11.2596234 C5.02974287,11.6768872 6.48908695,11.1877506 7.30937158,10.0453965 C7.92880555,9.97740677 8.53189859,9.80322151 9.0921965,9.53048119 C8.48234026,11.4911697 6.65886623,12.8199048 4.60562026,12.7997744 C2.55237429,12.7796439 0.755302651,11.4154123 0.184005926,9.44314347 C-0.387290799,7.47087465 0.402397449,5.35734988 2.12699852,4.24291038 L2.12699852,4.24291038 Z M9.06253548,8.70121562 L9.02253548,8.72121562 L9.06253548,8.70121562 Z"
                      id="Shape" fill="#24C8DB"/>
            </g>
        </g>
    </g>
</svg>

<svg xmlns="http://www.w3.org/2000/svg" width="16" height="16">
    <g fill="none" fill-rule="nonzero" transform="translate(2 2)">
        <path fill="#FFC131" d="M7.924 4.658a1.218 1.218 0 1 1-2.436 0 1.218 1.218 0 0 1 2.436 0Z"/>
        <circle cx="4.657" cy="8.146" r="1.218" fill="#24C8DB" transform="rotate(-180 4.657 8.146)"/>
        <path fill="#FFC131" d="M9.23 8.562a4.65 4.65 0 0 1-1.605.653c.166-.472.22-.976.16-1.473a3.267 3.267 0 1 0-3.731-4.988c-.62.07-1.223.245-1.783.52a4.65 4.65 0 1 1 6.96 5.288Zm-6.904-4.44 1.14.138c.027-.22.075-.438.145-.648a4.65 4.65 0 0 0-1.285.51Z"/>
        <path fill="#24C8DB" d="M2.127 4.243a4.65 4.65 0 0 1 1.617-.659 3.261 3.261 0 0 0-.183 1.478 3.267 3.267 0 1 0 3.748 4.983 5.426 5.426 0 0 0 1.783-.515 4.65 4.65 0 1 1-6.965-5.287ZM9.063 8.7l-.04.02.04-.02Z"/>
    </g>
</svg>
